localPackages/DesignSystem/Sources/DesignSystem/Resources/Assets.xcassets/IconSet/ic-arrow-in-to-rectangle.imageset/ic-arrow-in-to-rectangle.svg

<svg width="24" height="24" viewBox="0 0 24 24" fill="none" xmlns="http://www.w3.org/2000/svg">
<g id="ic-arrow-in-to-rectangle">
<path id="Icon" fill-rule="evenodd" clip-rule="evenodd" d="M11.25 1.5L19.5 1.5C21.1569 1.5 22.5 2.84315 22.5 4.5V19.5C22.5 21.1569 21.1569 22.5 19.5 22.5H11.25C9.59315 22.5 8.25 21.1569 8.25 19.5V18H9.75V19.5C9.75 20.3284 10.4216 21 11.25 21H19.5C20.3284 21 21 20.3284 21 19.5V4.5C21 3.67157 20.3284 3 19.5 3L11.25 3C10.4216 3 9.75 3.67157 9.75 4.5V6H8.25V4.5C8.25 2.84315 9.59315 1.5 11.25 1.5ZM9.96967 7.71967C10.2626 7.42678 10.7374 7.42678 11.0303 7.71967L14.5682 11.2575C14.7731 11.4624 14.8757 11.7324 14.8757 12C14.8757 12.2676 14.7731 12.5376 14.5682 12.7425L11.0303 16.2803C10.7374 16.5732 10.2626 16.5732 9.96967 16.2803C9.67678 15.9874 9.67678 15.5126 9.96967 15.2197L12.4393 12.75H2.25C1.83579 12.75 1.5 12.4142 1.5 12C1.5 11.5858 1.83579 11.25 2.25 11.25H12.4393L9.96967 8.78033C9.67678 8.48744 9.67678 8.01256 9.96967 7.71967Z" fill="#0F0F0F"/>
</g>
</svg>

<svg xmlns="http://www.w3.org/2000/svg" width="24" height="24" viewBox="0 0 24 24">
  <g class="ic-arrow-in-to-rectangle">
    <path fill-rule="evenodd" d="M11.25 1.5h8.25a3 3 0 0 1 3 3v15a3 3 0 0 1-3 3h-8.25a3 3 0 0 1-3-3V18h1.5v1.5a1.5 1.5 0 0 0 1.5 1.5h8.25a1.5 1.5 0 0 0 1.5-1.5v-15A1.5 1.5 0 0 0 19.5 3h-8.25a1.5 1.5 0 0 0-1.5 1.5V6h-1.5V4.5a3 3 0 0 1 3-3ZM9.97 7.72a.75.75 0 0 1 1.06 0l3.538 3.538a1.049 1.049 0 0 1 0 1.485L11.03 16.28a.75.75 0 1 1-1.06-1.06l2.47-2.47H2.25a.75.75 0 0 1 0-1.5h10.19L9.97 8.78a.75.75 0 0 1 0-1.06Z" class="Icon"/>
  </g>
</svg>
